X:92
T:The Queen's County Lasses
R:reel
B:
M:C
L:1/8
K:G
AG|FDFA d2 fd|d2 fd ecAG|FDFA d2 fd|ecAB c2 AG|
FDFA d2 fd|d2 fd ecAG|FDFA d2 fd|ecAF G2||de|
f2 fd g2 ge|a2 ag fede|f2 fd g2 ge|agfa g2 fg|
agfa gfeg|fedf ecAG|FDFA d2 fd|ecAF G2||
